X: 1
T: Hunt the Squirrel
C: Trad
R: Jig
M: 6/8
L: 1/8
K: Gmaj
Z: ABC transcription by Verge Roller
r: 32
|: "G" G2 d d2 e | "G" d3 B2 A | "G" GAB "D" A2 D | "G" GAB "D" A2 D |
"G" G2 d d2 e | "G" d3 B2 A | "G" GAB "D" A2 A | "G" G3-G z2 :|
|: "C" c2 d edc | "C" c2 d edc | "C" c2 d e2 f | "C" g3 f2 e |
"G" d B2 d B2 | "G" d B2 d3 | "G" GAB "D" A2 A | "G" G3-G z2 :|
